imgs/app-store.svg

<svg width="194" height="56" viewBox="0 0 194 56" fill="none" xmlns="http://www.w3.org/2000/svg">
<g clip-path="url(#clip0_513_1351)">
<path d="M193.455 50.3865C193.455 51.1242 193.31 51.8546 193.03 52.5361C192.75 53.2175 192.34 53.8366 191.823 54.3579C191.305 54.8793 190.691 55.2926 190.015 55.5744C189.339 55.8561 188.615 56.0008 187.884 56H5.57804C4.10045 56.0016 2.68274 55.4111 1.63669 54.3584C0.590647 53.3057 0.00192566 51.877 0 50.3865V5.62082C0.00192477 4.12967 0.590413 2.70023 1.63625 1.64638C2.68209 0.592523 4.09978 0.000394687 5.57804 7.62939e-06H187.882C188.614 7.60429e-06 189.339 0.145405 190.014 0.427895C190.69 0.710385 191.305 1.12443 191.822 1.64639C192.339 2.16835 192.75 2.788 193.029 3.46994C193.309 4.15188 193.453 4.88275 193.453 5.62082L193.455 50.3865Z" fill="#242427"/>
<path d="M43.2254 27.6903C43.1828 22.9488 47.1088 20.6421 47.2883 20.5347C45.0648 17.2938 41.6185 16.851 40.4075 16.8157C37.513 16.5112 34.7053 18.5472 33.2309 18.5472C31.727 18.5472 29.4564 16.8451 27.0093 16.8951C23.8602 16.9437 20.9143 18.7664 19.2985 21.5969C15.9641 27.3681 18.4509 35.8492 21.6456 40.5141C23.2437 42.8003 25.111 45.3497 27.5552 45.26C29.9464 45.1629 30.8397 43.7374 33.7253 43.7374C36.5845 43.7374 37.4232 45.26 39.916 45.2026C42.4823 45.1629 44.098 42.9076 45.6402 40.6024C47.487 37.9852 48.2286 35.4049 48.258 35.2725C48.1992 35.2519 43.2755 33.3718 43.2254 27.6903ZM38.5166 13.7469C39.8027 12.139 40.6827 9.95139 40.4384 7.73145C38.5769 7.81384 36.249 9.01869 34.9084 10.5913C33.7224 11.9771 32.6629 14.2486 32.9366 16.3846C35.0276 16.5406 37.1745 15.3298 38.5166 13.7469Z" fill="white"/>
<path d="M77.8608 44.9319H74.519L72.6884 39.1813H66.3256L64.5818 44.9319H61.3283L67.6338 25.3541H71.5274L77.8608 44.9319ZM72.1366 36.7686L70.4812 31.6564C70.3061 31.1342 69.9764 29.9043 69.4938 27.9683H69.4349C69.2407 28.801 68.9302 30.0308 68.5049 31.6564L66.8774 36.7686H72.1366ZM94.0446 37.6998C94.0446 40.1007 93.3927 41.9985 92.0875 43.3916C90.9191 44.6318 89.4667 45.2511 87.7347 45.2511C85.8644 45.2511 84.5195 44.5847 83.7028 43.2489V50.6561H80.5655V35.4549C80.5655 33.947 80.5258 32.4008 80.4492 30.8149H83.2083L83.3835 33.0525H83.4423C84.4886 31.3666 86.0763 30.5236 88.2071 30.5236C89.8729 30.5236 91.2634 31.1812 92.3759 32.4979C93.4869 33.8175 94.0446 35.5505 94.0446 37.6998ZM90.8485 37.8146C90.8485 36.4405 90.5395 35.3078 89.9185 34.4148C89.2401 33.4865 88.3292 33.0216 87.1873 33.0216C86.4133 33.0216 85.7099 33.2805 85.0816 33.791C84.4518 34.3059 84.0398 34.9782 83.847 35.8109C83.7609 36.1223 83.712 36.4428 83.7013 36.7657V39.1209C83.7013 40.1463 84.0162 41.0128 84.646 41.7219C85.2758 42.428 86.094 42.7826 87.1005 42.7826C88.2821 42.7826 89.2018 42.3251 89.8596 41.4174C90.5189 40.5067 90.8485 39.3063 90.8485 37.8146ZM110.286 37.6998C110.286 40.1007 109.634 41.9985 108.329 43.3916C107.159 44.6318 105.708 45.2511 103.974 45.2511C102.104 45.2511 100.759 44.5847 99.9425 43.2489V50.6561H96.8052V35.4549C96.8052 33.947 96.7655 32.4008 96.6889 30.8149H99.448L99.6232 33.0525H99.682C100.727 31.3666 102.315 30.5236 104.447 30.5236C106.111 30.5236 107.502 31.1812 108.617 32.4979C109.727 33.8175 110.286 35.5505 110.286 37.6998ZM107.088 37.8146C107.088 36.4405 106.778 35.3078 106.157 34.4148C105.478 33.4865 104.57 33.0216 103.429 33.0216C102.654 33.0216 101.951 33.2805 101.32 33.791C100.69 34.3059 100.279 34.9782 100.087 35.8109C99.991 36.1993 99.9395 36.5156 99.9395 36.7657V39.1209C99.9395 40.1463 100.256 41.0128 100.883 41.7219C101.513 42.4266 102.331 42.7826 103.34 42.7826C104.523 42.7826 105.443 42.3251 106.099 41.4174C106.759 40.5067 107.088 39.3063 107.088 37.8146ZM128.444 39.4402C128.444 41.107 127.862 42.4619 126.704 43.5078C125.429 44.6494 123.65 45.2217 121.369 45.2217C119.262 45.2217 117.573 44.8157 116.298 44.0021L117.024 41.3879C118.4 42.203 119.911 42.609 121.556 42.609C122.739 42.609 123.659 42.3412 124.315 41.8102C124.973 41.2776 125.306 40.5656 125.306 39.677C125.306 38.8811 125.03 38.2147 124.49 37.6719C123.947 37.1305 123.05 36.6259 121.789 36.1625C118.36 34.8841 116.644 33.0143 116.644 30.5545C116.644 28.9481 117.25 27.6329 118.46 26.6046C119.67 25.5777 121.274 25.0643 123.269 25.0643C125.051 25.0643 126.536 25.3747 127.714 25.994L126.927 28.5509C125.818 27.9506 124.565 27.6505 123.165 27.6505C122.058 27.6505 121.19 27.9227 120.569 28.4641C120.046 28.9481 119.782 29.538 119.782 30.2383C119.782 31.0106 120.083 31.652 120.684 32.1551C121.204 32.6185 122.155 33.1231 123.529 33.6645C125.216 34.3442 126.455 35.1356 127.248 36.0448C128.047 36.954 128.444 38.0882 128.444 39.4402ZM138.844 33.1687H135.386V40.0227C135.386 41.766 135.995 42.6355 137.216 42.6355C137.777 42.6355 138.242 42.5884 138.61 42.4898L138.696 44.8716C138.078 45.1026 137.265 45.2188 136.257 45.2188C135.018 45.2188 134.049 44.8407 133.35 44.0845C132.654 43.3284 132.304 42.0617 132.304 40.2787V33.1629H130.244V30.809H132.304V28.2243L135.386 27.2945V30.809H138.844V33.1687ZM154.415 37.7572C154.415 39.9271 153.794 41.7087 152.555 43.1018C151.259 44.5362 149.534 45.2511 147.384 45.2511C145.309 45.2511 143.66 44.5641 142.43 43.1916C141.199 41.816 140.584 40.0831 140.584 37.9926C140.584 35.805 141.22 34.0132 142.487 32.62C143.757 31.2254 145.467 30.5281 147.617 30.5281C149.689 30.5281 151.353 31.2166 152.613 32.5906C153.816 33.9234 154.415 35.6447 154.415 37.7572ZM151.163 37.8293C151.163 36.5362 150.884 35.4269 150.323 34.4986C149.665 33.3776 148.723 32.8171 147.503 32.8171C146.247 32.8171 145.283 33.3776 144.627 34.4986C144.065 35.4269 143.785 36.5553 143.785 37.8881C143.785 39.1827 144.065 40.2949 144.627 41.2202C145.305 42.3412 146.251 42.9017 147.477 42.9017C148.676 42.9017 149.617 42.3295 150.296 41.1923C150.873 40.2419 151.163 39.1253 151.163 37.8293ZM164.617 33.5733C164.291 33.5144 163.96 33.4854 163.628 33.4865C162.525 33.4865 161.671 33.9014 161.071 34.737C160.55 35.4725 160.288 36.4023 160.288 37.5248V44.9319H157.151V35.2607C157.154 33.7788 157.123 32.297 157.06 30.8164H159.792L159.907 33.5174H159.994C160.326 32.5891 160.847 31.8403 161.562 31.2798C162.217 30.79 163.012 30.5248 163.83 30.5236C164.12 30.5236 164.382 30.5442 164.614 30.581L164.617 33.5733ZM178.648 37.2055C178.656 37.6823 178.618 38.1588 178.533 38.6281H169.122C169.157 40.0227 169.613 41.0908 170.487 41.8263C171.28 42.4825 172.306 42.812 173.566 42.812C174.959 42.812 176.23 42.5913 177.374 42.1456L177.865 44.3214C176.529 44.9039 174.952 45.1938 173.131 45.1938C170.942 45.1938 169.223 44.5494 167.972 43.2636C166.724 41.9764 166.099 40.2464 166.099 38.0794C166.099 35.9521 166.68 34.1794 167.844 32.7657C169.063 31.2563 170.709 30.5016 172.781 30.5016C174.816 30.5016 176.357 31.2563 177.403 32.7657C178.232 33.9617 178.648 35.4446 178.648 37.2055ZM175.657 36.392C175.679 35.4608 175.473 34.659 175.047 33.9808C174.504 33.107 173.669 32.6715 172.549 32.6715C171.523 32.6715 170.687 33.0967 170.052 33.9499C169.529 34.6281 169.219 35.4431 169.123 36.389L175.657 36.392Z" fill="white"/>
<path d="M65.42 18.4325C64.5473 18.4325 63.7925 18.3898 63.1641 18.3178V8.85251C64.0429 8.71679 64.931 8.6499 65.8202 8.65243C69.4181 8.65243 71.075 10.4222 71.075 13.3071C71.075 16.6348 69.1179 18.4325 65.42 18.4325ZM65.9468 9.86612C65.4612 9.86612 65.0477 9.89554 64.7048 9.96615V17.1615C64.8902 17.1909 65.2463 17.2041 65.7466 17.2041C68.104 17.2041 69.446 15.8624 69.446 13.3498C69.446 11.1092 68.232 9.86612 65.9468 9.86612ZM76.2386 18.5046C74.2108 18.5046 72.8968 16.9908 72.8968 14.9356C72.8968 12.7937 74.2388 11.2666 76.3534 11.2666C78.3517 11.2666 79.6952 12.7083 79.6952 14.8224C79.6952 16.9908 78.3105 18.5046 76.2386 18.5046ZM76.2974 12.3935C75.1835 12.3935 74.4698 13.4351 74.4698 14.8915C74.4698 16.32 75.1982 17.3615 76.2827 17.3615C77.3672 17.3615 78.0956 16.2479 78.0956 14.8621C78.0956 13.4498 77.3819 12.3935 76.2974 12.3935ZM91.2584 11.4093L89.0879 18.3472H87.6738L86.7747 15.3343C86.5511 14.5973 86.365 13.8495 86.217 13.0938H86.1875C86.0742 13.8499 85.8594 14.6076 85.6313 15.3343L84.6748 18.3472H83.246L81.2035 11.4093H82.7883L83.5741 14.7076C83.7595 15.4932 83.9155 16.2346 84.045 16.9349H84.0744C84.1877 16.3509 84.3731 15.6212 84.6454 14.7223L85.6313 11.4108H86.888L87.8312 14.6517C88.0593 15.4373 88.2447 16.2082 88.3889 16.9364H88.4301C88.5302 16.2229 88.6876 15.4652 88.901 14.6517L89.7442 11.4108L91.2584 11.4093ZM99.2487 18.3472H97.7066V14.3634C97.7066 13.1364 97.2357 12.5215 96.3072 12.5215C95.3933 12.5215 94.765 13.3071 94.765 14.2207V18.3472H93.2229V13.3924C93.2229 12.779 93.2081 12.1214 93.1655 11.4079H94.5222L94.5943 12.4788H94.637C95.052 11.7374 95.8937 11.2666 96.8369 11.2666C98.2937 11.2666 99.2502 12.3803 99.2502 14.1927L99.2487 18.3472ZM103.501 18.3472H101.958V8.22581H103.501V18.3472ZM109.124 18.5046C107.098 18.5046 105.782 16.9908 105.782 14.9356C105.782 12.7937 107.124 11.2666 109.237 11.2666C111.237 11.2666 112.579 12.7083 112.579 14.8224C112.581 16.9908 111.195 18.5046 109.124 18.5046ZM109.181 12.3935C108.068 12.3935 107.354 13.4351 107.354 14.8915C107.354 16.32 108.084 17.3615 109.165 17.3615C110.251 17.3615 110.978 16.2479 110.978 14.8621C110.98 13.4498 110.267 12.3935 109.181 12.3935ZM118.66 18.3472L118.548 17.5484H118.507C118.036 18.1912 117.348 18.5046 116.477 18.5046C115.234 18.5046 114.351 17.6337 114.351 16.4627C114.351 14.7503 115.836 13.8646 118.406 13.8646V13.7367C118.406 12.8231 117.922 12.3656 116.966 12.3656C116.282 12.3656 115.681 12.5377 115.153 12.8805L114.839 11.8669C115.481 11.4667 116.282 11.2666 117.222 11.2666C119.035 11.2666 119.95 12.2229 119.95 14.1368V16.6922C119.95 17.3924 119.981 17.9353 120.05 18.3487L118.66 18.3472ZM118.448 14.8915C116.735 14.8915 115.875 15.3064 115.875 16.2905C115.875 17.0188 116.318 17.3748 116.933 17.3748C117.718 17.3748 118.448 16.776 118.448 15.9625V14.8915ZM127.439 18.3472L127.367 17.2335H127.324C126.881 18.075 126.136 18.5046 125.096 18.5046C123.423 18.5046 122.184 17.0335 122.184 14.9636C122.184 12.7937 123.468 11.2652 125.223 11.2652C126.151 11.2652 126.809 11.5785 127.18 12.2082H127.211V8.22581H128.754V16.4774C128.754 17.1482 128.77 17.7764 128.812 18.3472H127.439ZM127.211 14.2648C127.211 13.2939 126.568 12.4656 125.586 12.4656C124.443 12.4656 123.744 13.4792 123.744 14.9062C123.744 16.3053 124.469 17.263 125.555 17.263C126.525 17.263 127.211 16.42 127.211 15.4211V14.2648ZM138.541 18.5046C136.515 18.5046 135.201 16.9908 135.201 14.9356C135.201 12.7937 136.543 11.2666 138.656 11.2666C140.656 11.2666 141.998 12.7083 141.998 14.8224C141.999 16.9908 140.615 18.5046 138.541 18.5046ZM138.599 12.3935C137.486 12.3935 136.772 13.4351 136.772 14.8915C136.772 16.32 137.501 17.3615 138.584 17.3615C139.67 17.3615 140.397 16.2479 140.397 14.8621C140.4 13.4498 139.686 12.3935 138.599 12.3935ZM150.291 18.3472H148.748V14.3634C148.748 13.1364 148.277 12.5215 147.348 12.5215C146.435 12.5215 145.808 13.3071 145.808 14.2207V18.3472H144.264V13.3924C144.264 12.779 144.249 12.1214 144.207 11.4079H145.563L145.635 12.4788H145.678C146.092 11.7374 146.935 11.2652 147.877 11.2652C149.333 11.2652 150.291 12.3788 150.291 14.1912V18.3472ZM160.667 12.5656H158.97V15.9345C158.97 16.7922 159.268 17.2203 159.868 17.2203C160.14 17.2203 160.368 17.1909 160.552 17.1482L160.595 18.3192C160.296 18.434 159.896 18.4914 159.399 18.4914C158.183 18.4914 157.456 17.8205 157.456 16.064V12.5656H156.444V11.4093H157.456V10.1383L158.97 9.68076V11.4079H160.667V12.5656ZM168.831 18.3472H167.29V14.3928C167.29 13.1512 166.821 12.523 165.891 12.523C165.092 12.523 164.347 13.0658 164.347 14.1648V18.3472H162.807V8.22581H164.347V12.3935H164.378C164.864 11.6374 165.567 11.2652 166.465 11.2652C167.933 11.2652 168.831 12.4068 168.831 14.2207V18.3472ZM177.195 15.249H172.567C172.597 16.5627 173.466 17.3042 174.754 17.3042C175.438 17.3042 176.068 17.1894 176.624 16.9761L176.864 18.0471C176.208 18.3325 175.435 18.4752 174.536 18.4752C172.366 18.4752 171.081 17.1041 171.081 14.9783C171.081 12.851 172.397 11.2519 174.362 11.2519C176.136 11.2519 177.248 12.5656 177.248 14.5502C177.258 14.7844 177.24 15.019 177.195 15.249ZM175.781 14.15C175.781 13.0791 175.241 12.3229 174.255 12.3229C173.369 12.3229 172.669 13.0938 172.569 14.15H175.781Z" fill="white"/>
</g>
<defs>
<clipPath id="clip0_513_1351">
<rect width="193.455" height="56" fill="white"/>
</clipPath>
</defs>
</svg>

<svg xmlns="http://www.w3.org/2000/svg" width="194" height="56" fill="none" xmlns:v="https://vecta.io/nano"><g clip-path="url(#A)"><path d="M193.455 50.387a5.66 5.66 0 0 1-.425 2.15 5.62 5.62 0 0 1-1.207 1.822 5.57 5.57 0 0 1-1.808 1.216c-.676.282-1.4.426-2.131.426H5.578c-1.478.002-2.895-.589-3.941-1.642S.002 51.877 0 50.387V5.621C.002 4.13.59 2.7 1.636 1.646S4.1 0 5.578 0h182.304c.732 0 1.457.145 2.132.428s1.291.697 1.808 1.218.928 1.142 1.207 1.824.424 1.413.424 2.151l.002 44.766z" fill="#242427"/><g fill="#fff"><path d="M43.225 27.69c-.043-4.742 3.883-7.048 4.063-7.156-2.224-3.241-5.67-3.684-6.881-3.719-2.895-.305-5.702 1.732-7.177 1.732-1.504 0-3.774-1.702-6.222-1.652-3.149.049-6.095 1.871-7.711 4.702-3.334 5.771-.848 14.252 2.347 18.917 1.598 2.286 3.465 4.836 5.91 4.746 2.391-.097 3.285-1.523 6.17-1.523 2.859 0 3.698 1.523 6.191 1.465 2.566-.04 4.182-2.295 5.724-4.6 1.847-2.617 2.588-5.198 2.618-5.33-.059-.021-4.983-1.901-5.033-7.582zm-4.709-13.943c1.286-1.608 2.166-3.796 1.922-6.015-1.861.082-4.189 1.287-5.53 2.86-1.186 1.386-2.245 3.657-1.972 5.793 2.091.156 4.238-1.055 5.58-2.638zm39.345 31.185h-3.342l-1.831-5.751h-6.363l-1.744 5.751h-3.254l6.305-19.578h3.894l6.333 19.578zm-5.724-8.163l-1.655-5.112c-.175-.522-.505-1.752-.987-3.688h-.059l-.93 3.688-1.628 5.112h5.259zm21.908.931c0 2.401-.652 4.299-1.957 5.692-1.168 1.24-2.621 1.86-4.353 1.86-1.87 0-3.215-.666-4.032-2.002v7.407h-3.137V35.455l-.116-4.64h2.759l.175 2.238h.059c1.046-1.686 2.634-2.529 4.765-2.529 1.666 0 3.056.658 4.169 1.974s1.669 3.053 1.669 5.202zm-3.196.115c0-1.374-.309-2.507-.93-3.4a3.21 3.21 0 0 0-2.731-1.393c-.774 0-1.477.259-2.106.769s-1.042 1.187-1.235 2.02a4.09 4.09 0 0 0-.146.955v2.355c0 1.025.315 1.892.945 2.601s1.448 1.061 2.454 1.061c1.182 0 2.101-.458 2.759-1.365s.989-2.111.989-3.603zm19.438-.115c0 2.401-.652 4.299-1.957 5.692a5.74 5.74 0 0 1-4.355 1.86c-1.87 0-3.215-.666-4.032-2.002v7.407h-3.137V35.455l-.116-4.64h2.759l.175 2.238h.059c1.045-1.686 2.633-2.529 4.765-2.529 1.664 0 3.055.658 4.17 1.974s1.669 3.053 1.669 5.202zm-3.198.115c0-1.374-.31-2.507-.931-3.4-.679-.928-1.587-1.393-2.728-1.393-.775 0-1.478.259-2.109.769a3.56 3.56 0 0 0-1.233 2.02c-.096.388-.148.705-.148.955v2.355c0 1.025.317 1.892.944 2.601s1.448 1.061 2.457 1.061c1.183 0 2.103-.458 2.759-1.365s.989-2.111.989-3.603zm21.356 1.626c0 1.667-.582 3.022-1.74 4.068-1.275 1.142-3.054 1.714-5.335 1.714-2.107 0-3.796-.406-5.071-1.22l.726-2.614c1.376.815 2.887 1.221 4.532 1.221 1.183 0 2.103-.268 2.759-.799s.991-1.245.991-2.133c0-.796-.276-1.462-.816-2.005s-1.44-1.046-2.701-1.509c-3.429-1.278-5.145-3.148-5.145-5.608 0-1.606.606-2.922 1.816-3.95s2.814-1.54 4.809-1.54c1.782 0 3.267.31 4.445.93l-.787 2.557c-1.109-.6-2.362-.9-3.762-.9-1.107 0-1.975.272-2.596.814-.523.484-.787 1.074-.787 1.774 0 .772.301 1.414.902 1.917.52.463 1.471.968 2.845 1.509 1.687.68 2.926 1.471 3.719 2.38.799.909 1.196 2.043 1.196 3.395zm10.4-6.271h-3.458v6.854c0 1.743.609 2.613 1.83 2.613.561 0 1.026-.047 1.394-.146l.086 2.382c-.618.231-1.431.347-2.439.347-1.239 0-2.208-.378-2.907-1.134s-1.046-2.023-1.046-3.806v-7.116h-2.06V30.81h2.06v-2.585l3.082-.93v3.515h3.458v2.36zm15.571 4.588c0 2.17-.621 3.952-1.86 5.345-1.296 1.434-3.021 2.149-5.171 2.149-2.075 0-3.724-.687-4.954-2.059s-1.846-3.108-1.846-5.199c0-2.188.636-3.979 1.903-5.373s2.98-2.092 5.13-2.092c2.072 0 3.736.689 4.996 2.063 1.203 1.333 1.802 3.054 1.802 5.167zm-3.252.072c0-1.293-.279-2.402-.84-3.331-.658-1.121-1.6-1.681-2.82-1.681-1.256 0-2.22.56-2.876 1.681-.562.928-.842 2.057-.842 3.389 0 1.295.28 2.407.842 3.332.678 1.121 1.624 1.681 2.85 1.681 1.199 0 2.14-.572 2.819-1.709.577-.95.867-2.067.867-3.363zm13.454-4.256a5.46 5.46 0 0 0-.989-.087c-1.103 0-1.957.415-2.557 1.251-.521.735-.783 1.665-.783 2.788v7.407h-3.137v-9.671l-.091-4.444h2.732l.115 2.701h.087c.332-.928.853-1.677 1.568-2.238.655-.49 1.45-.755 2.268-.756a5.13 5.13 0 0 1 .784.057l.003 2.992zm14.031 3.632a7.3 7.3 0 0 1-.115 1.423h-9.411c.035 1.395.491 2.463 1.365 3.198.793.656 1.819.986 3.079.986 1.393 0 2.664-.221 3.808-.666l.491 2.176c-1.336.583-2.913.872-4.734.872-2.189 0-3.908-.644-5.159-1.93s-1.873-3.017-1.873-5.184c0-2.127.581-3.9 1.745-5.314 1.219-1.509 2.865-2.264 4.937-2.264 2.035 0 3.576.755 4.622 2.264.829 1.196 1.245 2.679 1.245 4.44zm-2.991-.813c.022-.931-.184-1.733-.61-2.411-.543-.874-1.378-1.309-2.498-1.309-1.026 0-1.862.425-2.497 1.278-.523.678-.833 1.493-.929 2.439l6.534.003zM65.42 18.433a20.06 20.06 0 0 1-2.256-.115V8.853c.879-.136 1.767-.203 2.656-.2 3.598 0 5.255 1.77 5.255 4.655 0 3.328-1.957 5.125-5.655 5.125zm.527-8.566c-.486 0-.899.029-1.242.1v7.195c.185.029.541.043 1.042.043 2.357 0 3.699-1.342 3.699-3.854 0-2.241-1.214-3.484-3.499-3.484zm10.292 8.638c-2.028 0-3.342-1.514-3.342-3.569 0-2.142 1.342-3.669 3.457-3.669 1.998 0 3.342 1.442 3.342 3.556 0 2.168-1.385 3.682-3.457 3.682zm.059-6.111c-1.114 0-1.828 1.042-1.828 2.498 0 1.428.728 2.47 1.813 2.47s1.813-1.114 1.813-2.499c0-1.412-.714-2.469-1.798-2.469zm14.961-.984l-2.17 6.938h-1.414l-.899-3.013a22.83 22.83 0 0 1-.558-2.241h-.029c-.113.756-.328 1.514-.556 2.241l-.956 3.013h-1.429l-2.042-6.938h1.585l.786 3.298.471 2.227h.029c.113-.584.299-1.314.571-2.213l.986-3.312h1.257l.943 3.241.558 2.285h.041c.1-.713.258-1.471.471-2.285l.843-3.241 1.514-.002zm7.99 6.938h-1.542v-3.984c0-1.227-.471-1.842-1.399-1.842-.914 0-1.542.786-1.542 1.699v4.127h-1.542v-4.955l-.057-1.985h1.357l.072 1.071h.043c.415-.741 1.257-1.212 2.2-1.212 1.457 0 2.413 1.114 2.413 2.926l-.002 4.155zm4.252 0h-1.543V8.226h1.543v10.121zm5.623.157c-2.026 0-3.342-1.514-3.342-3.569 0-2.142 1.342-3.669 3.455-3.669 2 0 3.342 1.442 3.342 3.556.002 2.168-1.384 3.682-3.455 3.682zm.057-6.111c-1.113 0-1.827 1.042-1.827 2.498 0 1.428.73 2.47 1.811 2.47s1.813-1.114 1.813-2.499c.002-1.412-.711-2.469-1.797-2.469zm9.479 5.954l-.112-.799h-.041c-.471.643-1.159.956-2.03.956-1.243 0-2.126-.871-2.126-2.042 0-1.712 1.485-2.598 4.055-2.598v-.128c0-.914-.484-1.371-1.44-1.371-.684 0-1.285.172-1.813.515l-.314-1.014c.642-.4 1.443-.6 2.383-.6 1.813 0 2.728.956 2.728 2.87v2.555c0 .7.031 1.243.1 1.657l-1.39-.002zm-.212-3.456c-1.713 0-2.573.415-2.573 1.399 0 .728.443 1.084 1.058 1.084.785 0 1.515-.599 1.515-1.412v-1.071zm8.991 3.456l-.072-1.114h-.043c-.443.841-1.188 1.271-2.228 1.271-1.673 0-2.912-1.471-2.912-3.541 0-2.17 1.284-3.698 3.039-3.698.928 0 1.586.313 1.957.943h.031V8.226h1.543v8.252l.058 1.87h-1.373zm-.228-4.082c0-.971-.643-1.799-1.625-1.799-1.143 0-1.842 1.014-1.842 2.441 0 1.399.725 2.357 1.811 2.357.97 0 1.656-.843 1.656-1.842v-1.156zm11.33 4.24c-2.026 0-3.34-1.514-3.34-3.569 0-2.142 1.342-3.669 3.455-3.669 2 0 3.342 1.442 3.342 3.556.001 2.168-1.383 3.682-3.457 3.682zm.058-6.111c-1.113 0-1.827 1.042-1.827 2.498 0 1.428.729 2.47 1.812 2.47s1.813-1.114 1.813-2.499c.003-1.412-.711-2.469-1.798-2.469zm11.692 5.954h-1.543v-3.984c0-1.227-.471-1.842-1.4-1.842-.913 0-1.54.786-1.54 1.699v4.127h-1.544v-4.955l-.057-1.985h1.356l.072 1.071h.043c.414-.741 1.257-1.214 2.199-1.214 1.456 0 2.414 1.114 2.414 2.926v4.156zm10.376-5.782h-1.697v3.369c0 .858.298 1.286.898 1.286a3.02 3.02 0 0 0 .684-.072l.043 1.171c-.299.115-.699.172-1.196.172-1.216 0-1.943-.671-1.943-2.427v-3.498h-1.012v-1.156h1.012v-1.271l1.514-.458v1.727h1.697v1.158zm8.164 5.782h-1.541v-3.954c0-1.242-.469-1.87-1.399-1.87-.799 0-1.544.543-1.544 1.642v4.182h-1.54V8.226h1.54v4.168h.031c.486-.756 1.189-1.128 2.087-1.128 1.468 0 2.366 1.142 2.366 2.956v4.127zm8.364-3.098h-4.628c.03 1.314.899 2.055 2.187 2.055.684 0 1.314-.115 1.87-.328l.24 1.071c-.656.285-1.429.428-2.328.428-2.17 0-3.455-1.371-3.455-3.497s1.316-3.726 3.281-3.726c1.774 0 2.886 1.314 2.886 3.298a2.98 2.98 0 0 1-.053.699zm-1.414-1.099c0-1.071-.54-1.827-1.526-1.827-.886 0-1.586.771-1.686 1.827h3.212z"/></g></g><defs><clipPath id="A"><path fill="#fff" d="M0 0h193.455v56H0z"/></clipPath></defs></svg>
